svgs/thin/location-pen.svg

<svg xmlns="http://www.w3.org/2000/svg" viewBox="0 0 384 512"><!--! Font Awesome Pro 6.4.0 by @fontawesome - https://fontawesome.com License - https://fontawesome.com/license (Commercial License) Copyright 2023 Fonticons, Inc. --><path d="M368 192c0-97.2-78.8-176-176-176S16 94.8 16 192c0 18.7 6.4 42.5 17.8 69.6c11.3 26.9 27.1 55.8 44.7 84.3c35.2 57 76.8 111.4 102.3 143.2c5.9 7.3 16.6 7.3 22.4 0c25.5-31.8 67.1-86.2 102.3-143.2c17.6-28.5 33.4-57.4 44.7-84.3C361.6 234.5 368 210.7 368 192zm16 0c0 87.4-117 243-168.3 307.2c-12.3 15.3-35.1 15.3-47.4 0C117 435 0 279.4 0 192C0 86 86 0 192 0S384 86 384 192zM100.6 283.4c-4-4-5.6-9.7-4.2-15.2l9.2-36.7c1.4-5.6 4.3-10.8 8.4-14.9L223.6 107c14.7-14.7 38.6-14.7 53.4 0s14.7 38.6 0 53.4L167.4 270c-4.1 4.1-9.2 7-14.9 8.4l-36.7 9.2c-5.5 1.4-11.2-.2-15.2-4.2zm15.7-28.9l-4.4 17.6 17.6-4.4 19.1-4.8c2.8-.7 5.4-2.2 7.4-4.2L241.7 173 211 142.3l-85.7 85.7c-2.1 2.1-3.5 4.6-4.2 7.4l-4.8 19.1zM265.7 149.1c8.5-8.5 8.5-22.3 0-30.7s-22.3-8.5-30.7 0L222.3 131 253 161.7l12.6-12.6z"/></svg>

<svg xmlns="http://www.w3.org/2000/svg" viewBox="0 0 384 512"><!--! Font Awesome Pro 6.3.0 by @fontawesome - https://fontawesome.com License - https://fontawesome.com/license (Commercial License) Copyright 2023 Fonticons, Inc. --><path d="M100.6 283.4C96.63 279.4 95.03 273.6 96.4 268.2L105.6 231.5C106.1 225.9 109.9 220.7 113.1 216.6L223.6 107C238.3 92.29 262.2 92.29 276.1 107C291.7 121.8 291.7 145.7 276.1 160.4L167.4 270C163.3 274.1 158.1 277 152.5 278.4L115.8 287.6C110.3 288.1 104.6 287.4 100.6 283.4V283.4zM111.9 272.1L148.6 262.9C151.4 262.2 153.1 260.7 156 258.7L241.7 173L210.1 142.3L125.3 227.9C123.3 229.1 121.8 232.6 121.1 235.4L111.9 272.1zM265.7 118.3C257.2 109.9 243.4 109.9 234.9 118.3L222.3 130.1L253 161.7L265.7 149.1C274.1 140.6 274.1 126.8 265.7 118.3H265.7zM384 192C384 279.4 267 435 215.7 499.2C203.4 514.5 180.6 514.5 168.3 499.2C116.1 435 0 279.4 0 192C0 85.96 85.96 0 192 0C298 0 384 85.96 384 192H384zM192 16C94.8 16 16 94.8 16 192C16 210.7 22.37 234.5 33.82 261.6C45.16 288.5 60.93 317.4 78.52 345.9C113.7 402.1 155.3 457.3 180.8 489.2C186.7 496.5 197.3 496.5 203.2 489.2C228.7 457.3 270.3 402.1 305.5 345.9C323.1 317.4 338.8 288.5 350.2 261.6C361.6 234.5 368 210.7 368 192C368 94.8 289.2 16 192 16H192z"/></svg>
